X: 7
T: HORNPIPES: Sonny Murray's Set
T: Sonny Murray's
C: C: Trad. / Frank McCollum / Trad.; S: Drunken Gaugers / Various
C: Set Leaders: Mars, Anton
Z: Mars Agliullin ed., Oleg Naumov arr.; Jdharv / Jdharv / Bannerman at The Session
N: https://thesession.org/members/26966/sets/94256
R: Hornpipe
M: 4/4
L: 1/8
Q: 1/2=82
K: Dmaj
|:FG|"D"AB AF DE FG|AG (3FED "C"=c2 (3AB^c|"D"dc de "D/B"fd AF|"G"G2 GF "A"G2 FG|
"D"AB AF DE FG|AG (3FED "C"=c2 (3AB^c|"D"dc de "D/B"fd AG|"D/F#"F2 "D"D2 D2:||
|:de|"D"f2 fd "A"ec AF|"C"Gg gf "G"g2 fg|"D/F#"a2 ab "D/B"ag ec|"G (Em)"dc AF "A"G2 FG|
"D"AB AF DE FG|"D"AG "A"(3FED "C"=c2 (3AB^c|"D"dc de "D/B"fd AG|"D/F#"F2 "D"D2 D2:||
T: Home Ruler
K: Dmaj
|:A,B,|"D"D2 FA D2 FA|df "D/F#"ed "G"Bd dB|"D"AA AB "(D/B)"AF DE|"A"(3FED ED "G"B,D A,B,|
"D"D2 FA D2 FA|df "D/F#"ed "G"B2 dB|"D"A2 AB "(D/B)"AF EG|"D/F#"F2 "D"D2  D2:||
|:dB|"D"Ad dc de fg|"Bm"af bf af ed|"G"ef ed B2 de|"A"fd ed "G"Bd A2|
"D"Ad dc de fg|"Bm  (D/F#)"af bf af ed|"G (Em)"ef ed Bd dB|"A"AF EF "(D)"D2:||
T: Kitty's Wedding
K: Dmaj
|:fe|"D"d2 Bd A2 FA|"D/B"BA FE D2 ED|"G"B,D A,B, DE FB|"A"AF DF E2 fe|
"D"d2 Bd "A"A2 FA|"D/B"BA FE "A"D2 ED|"G"B,D A,B, "D/F#"DE FB|"A"AF EF "D"D2:||
|:fg|"D"af ed "Em"ba fd|"D/F#"Ad fd "G"ed Bd|"D/F#"DF Ad "D"FA de|"G/B"fd gf "A"e2 fg|
"Bm"af ed "A"ba fd|"G"Ad fd "D/F#"ed Bd|"Em"DF Ad "G"FA df|"D/F#"eA "A"Bc "(D)"d2:||

